X:1
T:Stella By Starlight
C:Victor Young
L:1/4
M:C
I:linebreak $
K:Bb
"Gm/F" B2 ||"Eø" A4 |"A7" z G A B |"Cm" F4 |$"F7" z2 z F |"Fm" G4 |"E7" z F F G |"Eb" B,4 |$
"Ab7" z2 z C |"Bb" E D"Bb6" C B, |"Eø" D2"A7" z =E |"Dm" G F F2 |$"Gø" z2 z G |
"Dm/C" B A G F |"Bbo" G2 A B |"Aø" d c c2 |$"D7" z2 z d |"G+" e4 |"G#7" z e e d |"Cm" f4 |$
"Dm" z e (3d c B |"EbmM" d4 |"Ab7" z c B A |"Dm" c4 |$"Gm" z2"Gm/F" z B |"Eø" A4 |
"A7" z G A B |"Dø" F4 |$"G7" z F F E |"Cø" _G4 |"B7" z _G _G F |"Bb6" F4 |]

